symbols/web/fire_truck/materialsymbolssharp/fire_truck_wght600fill1_20px.svg

<svg xmlns="http://www.w3.org/2000/svg" height="20" width="20"><path d="M5.854 17.875q-1.125 0-1.906-.792-.781-.791-.781-1.916H.458V8.938h9.709V3.812h2.979V1.875h3v1.937h1.666L19.542 9v6.167h-2.313q0 1.125-.791 1.916-.792.792-1.917.792-1.104 0-1.896-.792-.792-.791-.792-1.916H8.542q0 1.125-.782 1.916-.781.792-1.906.792Zm0-1.958q.313 0 .531-.209.219-.208.219-.52 0-.334-.219-.553-.218-.218-.531-.218-.312 0-.521.208-.208.208-.229.542 0 .312.219.531.219.219.531.219Zm8.667 0q.333 0 .552-.209.219-.208.219-.541-.021-.313-.23-.532-.208-.218-.52-.218-.313 0-.532.218-.218.219-.218.532 0 .312.208.531.208.219.521.219Zm-2.063-6.979h4.646l-.937-2.834h-3.709Zm-12-.834V6.521h.938V5.375H.458V3.812h8.875v1.563h-.916v1.146h.916v1.583Zm2.5-1.583h1.167V5.375H2.958Zm2.73 0h1.166V5.375H5.688Zm4.479 4.708v1.646H7.188q-.292-.187-.626-.292-.333-.104-.708-.104-.375 0-.698.104-.323.105-.594.292H2.75v-1.646Zm2.291 0h4.792v1.646h-1.396q-.292-.187-.625-.292-.333-.104-.708-.104-.354 0-.677.104-.323.105-.615.292h-.771Z"/></svg>

<svg xmlns="http://www.w3.org/2000/svg" height="20" width="20"><path d="M5.854 17.875Q4.729 17.875 3.948 17.083Q3.167 16.292 3.167 15.167H0.458V8.938H10.167V3.812H13.146V1.875H16.146V3.812H17.812L19.542 9V15.167H17.229Q17.229 16.292 16.438 17.083Q15.646 17.875 14.521 17.875Q13.417 17.875 12.625 17.083Q11.833 16.292 11.833 15.167H8.542Q8.542 16.292 7.76 17.083Q6.979 17.875 5.854 17.875ZM5.854 15.917Q6.167 15.917 6.385 15.708Q6.604 15.5 6.604 15.188Q6.604 14.854 6.385 14.635Q6.167 14.417 5.854 14.417Q5.542 14.417 5.333 14.625Q5.125 14.833 5.104 15.167Q5.104 15.479 5.323 15.698Q5.542 15.917 5.854 15.917ZM14.521 15.917Q14.854 15.917 15.073 15.708Q15.292 15.5 15.292 15.167Q15.271 14.854 15.062 14.635Q14.854 14.417 14.542 14.417Q14.229 14.417 14.01 14.635Q13.792 14.854 13.792 15.167Q13.792 15.479 14 15.698Q14.208 15.917 14.521 15.917ZM12.458 8.938H17.104L16.167 6.104H12.458ZM0.458 8.104V6.521H1.396V5.375H0.458V3.812H9.333V5.375H8.417V6.521H9.333V8.104ZM2.958 6.521H4.125V5.375H2.958ZM5.688 6.521H6.854V5.375H5.688ZM10.167 11.229V12.875H7.188Q6.896 12.688 6.562 12.583Q6.229 12.479 5.854 12.479Q5.479 12.479 5.156 12.583Q4.833 12.688 4.562 12.875H2.75V11.229ZM12.458 11.229H17.25V12.875H15.854Q15.562 12.688 15.229 12.583Q14.896 12.479 14.521 12.479Q14.167 12.479 13.844 12.583Q13.521 12.688 13.229 12.875H12.458Z"/></svg>
